public/dist/106_0x13/universite-lille-d527bda6.svg

<svg width="171" height="143" viewBox="0 0 171 143" fill="none" xmlns="http://www.w3.org/2000/svg">
<g clip-path="url(#clip0_1_9)">
<mask id="mask0_1_9" style="mask-type:luminance" maskUnits="userSpaceOnUse" x="0" y="0" width="171" height="143">
<path d="M170.705 0H0V142.654H170.705V0Z" fill="white"/>
</mask>
<g mask="url(#mask0_1_9)">
<path d="M11.212 106.895C18.033 106.895 21.97 103.271 21.97 95.904V79.222H17.8V95.982C17.8 100.659 15.734 103.115 11.213 103.115C6.731 103.115 4.548 100.659 4.548 95.982V79.222H0.376001V95.9C0.376001 103.267 4.352 106.891 11.212 106.891M26.452 106.502H30.352L30.391 95.315C30.391 92.08 32.261 90.093 35.302 90.093C38.225 90.093 39.784 91.885 39.784 95.315V106.502H43.684V94.462C43.684 89.745 41.306 86.627 36.707 86.627C35.5086 86.585 34.316 86.8118 33.2167 87.2908C32.1174 87.7698 31.1392 88.4887 30.354 89.395V87.017H26.454L26.452 106.502ZM48.24 106.502H52.14V87.018H48.24V106.502ZM62.04 106.502H66.951L74.351 87.013H70.145L64.532 103.228L58.842 87.013H54.632L62.04 106.502ZM50.228 83.7C50.7098 83.7037 51.1818 83.5645 51.5845 83.3C51.9872 83.0355 52.3023 82.6574 52.4902 82.2138C52.678 81.7701 52.7301 81.2807 52.6397 80.8075C52.5494 80.3342 52.3208 79.8984 51.9828 79.555C51.6448 79.2117 51.2126 78.9763 50.7408 78.8787C50.269 78.781 49.7789 78.8254 49.3323 79.0063C48.8858 79.1872 48.5029 79.4964 48.2321 79.8949C47.9613 80.2934 47.8148 80.7632 47.811 81.245C47.7988 81.5675 47.8527 81.889 47.9693 82.1899C48.0859 82.4907 48.2629 82.7646 48.4893 82.9945C48.7157 83.2244 48.9867 83.4057 49.2857 83.527C49.5847 83.6483 49.9054 83.7072 50.228 83.7ZM85.307 106.891C89.789 106.891 93.453 104.436 94.307 100.891H90.179C89.479 102.45 87.723 103.58 85.268 103.58C81.916 103.58 79.811 101.748 79.343 98.201H94.5C94.5765 97.6711 94.6156 97.1364 94.617 96.601C94.617 90.638 91.187 86.623 85.185 86.623C79.299 86.623 75.324 90.638 75.324 96.601C75.324 103.072 79.224 106.891 85.302 106.891M79.343 95.047C79.811 91.929 81.838 89.941 85.073 89.941C88.347 89.941 90.647 92.123 90.647 95.047H79.343ZM98.52 106.506H102.42V90.525H109.279V87.017H103.628C102.951 86.9931 102.276 87.1088 101.646 87.357C101.016 87.6051 100.443 87.9804 99.9644 88.4594C99.4854 88.9383 99.1101 89.5108 98.862 90.1411C98.6138 90.7714 98.4981 91.446 98.522 92.123L98.52 106.506ZM118.866 106.895C123.894 106.895 126.934 104.752 126.934 100.895C126.934 97.543 125.063 95.711 121.555 95.126L117.073 94.386C115.553 94.152 114.734 93.411 114.734 92.164C114.734 90.605 116.334 89.747 118.593 89.747C121.204 89.747 122.685 90.917 122.841 92.866H126.622C126.427 88.812 123.66 86.59 118.593 86.59C113.76 86.59 111.109 88.929 111.109 92.32C111.109 95.594 113.136 97.27 116.449 97.82L120.581 98.482C121.27 98.5137 121.922 98.8043 122.406 99.2958C122.89 99.7873 123.171 100.443 123.192 101.133C123.192 102.692 121.555 103.627 118.866 103.627C115.942 103.627 114.578 102.185 114.344 100.627H110.486C110.72 104.447 113.955 106.902 118.866 106.902M130.832 106.513H134.732V87.018H130.832V106.513ZM144.632 106.513H149.5V103H143.46V90.525H149.5V87.017H143.46V80.937H139.56V101.478C139.533 102.149 139.646 102.818 139.892 103.443C140.137 104.067 140.51 104.634 140.987 105.107C141.464 105.58 142.033 105.949 142.66 106.189C143.287 106.43 143.956 106.538 144.627 106.506M132.817 83.706C133.299 83.7099 133.771 83.5709 134.174 83.3065C134.577 83.0421 134.892 82.6641 135.08 82.2205C135.268 81.7768 135.32 81.2874 135.23 80.8141C135.14 80.3408 134.911 79.9048 134.573 79.5614C134.235 79.218 133.803 78.9825 133.331 78.8848C132.859 78.787 132.369 78.8313 131.923 79.0122C131.476 79.1931 131.093 79.5023 130.822 79.9008C130.551 80.2993 130.405 80.7692 130.401 81.251C130.389 81.5734 130.442 81.8949 130.559 82.1958C130.675 82.4967 130.852 82.7705 131.079 83.0005C131.305 83.2304 131.576 83.4116 131.875 83.533C132.174 83.6543 132.494 83.7132 132.817 83.706ZM161.387 106.897C165.87 106.897 169.533 104.442 170.387 100.897H166.255C165.555 102.456 163.8 103.586 161.344 103.586C157.992 103.586 155.888 101.754 155.42 98.207H170.582C170.658 97.6771 170.698 97.1424 170.699 96.607C170.699 90.644 167.269 86.629 161.266 86.629C155.381 86.629 151.405 90.644 151.405 96.607C151.405 103.078 155.305 106.897 161.383 106.897M155.42 95.049C155.888 91.931 157.914 89.943 161.149 89.943C164.424 89.943 166.723 92.125 166.723 95.049H155.42ZM159.473 84.875H162.981L166.645 79.224H162.045L159.473 84.875ZM10.329 139.224C6.353 139.224 4.093 136.301 4.093 132.598C4.093 128.895 6.393 125.972 10.329 125.972C14.029 125.972 16.604 128.895 16.604 132.598C16.604 136.301 14.149 139.224 10.329 139.224ZM9.471 142.654C12.629 142.654 15.045 141.68 16.448 139.575V142.264H20.348V114.98H16.448V125.5C15.6059 124.495 14.5484 123.693 13.3538 123.154C12.1593 122.614 10.8585 122.35 9.548 122.382C4.048 122.382 -0.0019989 126.552 -0.0019989 132.594C-0.0019989 138.636 3.935 142.65 9.469 142.65M33.83 142.65C38.312 142.65 41.976 140.195 42.83 136.65H38.7C38 138.208 36.244 139.339 33.789 139.339C30.437 139.339 28.332 137.507 27.864 133.96H43.03C43.1064 133.43 43.1455 132.895 43.147 132.36C43.147 126.397 39.717 122.382 33.715 122.382C27.83 122.382 23.854 126.397 23.854 132.36C23.854 138.83 27.754 142.65 33.832 142.65M27.868 130.8C28.336 127.682 30.368 125.694 33.598 125.694C36.872 125.694 39.172 127.877 39.172 130.8H27.868ZM55.735 142.259H71.482V138.674H59.906V114.974H55.735V142.259ZM101.047 142.259H104.947V138.674H99.917V114.974H96.017V137.269C96.017 140.387 97.849 142.258 101.045 142.258M112.114 142.258H116.014V138.673H110.986V114.973H107.086V137.268C107.086 140.386 108.918 142.258 112.114 142.258ZM126.965 142.647C131.447 142.647 135.111 140.192 135.965 136.647H131.834C131.134 138.205 129.378 139.336 126.922 139.336C123.571 139.336 121.466 137.504 120.998 133.957H136.16C136.236 133.427 136.276 132.892 136.277 132.357C136.277 126.394 132.847 122.379 126.845 122.379C120.959 122.379 116.983 126.394 116.983 132.357C116.983 138.827 120.883 142.647 126.962 142.647M121 130.8C121.468 127.682 123.5 125.694 126.73 125.694C130.004 125.694 132.303 127.877 132.303 130.8H121Z" fill="#222221"/>
<path d="M30.352 106.502H26.452L26.454 87.017H30.354V89.395C31.1392 88.4887 32.1174 87.7698 33.2167 87.2908C34.316 86.8118 35.5086 86.585 36.707 86.627C41.306 86.627 43.684 89.745 43.684 94.462V106.502H39.784V95.315C39.784 91.885 38.225 90.093 35.302 90.093C32.261 90.093 30.391 92.08 30.391 95.315L30.352 106.502Z" fill="#222221"/>
</g>
<path fill-rule="evenodd" clip-rule="evenodd" d="M32.3 47H39.329V0H32.3V47ZM0.862999 47H8.437V0H0.862999V47ZM24.013 47V0H16.713V47H24.013Z" fill="#222221"/>
<path d="M82.976 142.568C87.458 142.568 91.122 140.113 91.976 136.568H87.846C87.146 138.126 85.39 139.257 82.935 139.257C79.583 139.257 77.478 137.425 77.01 133.878H92.176C92.2524 133.348 92.2915 132.813 92.293 132.278C92.293 126.315 88.863 122.3 82.861 122.3C76.976 122.3 73 126.315 73 132.278C73 138.748 76.9 142.568 82.978 142.568M77.014 130.718C77.482 127.6 79.514 125.612 82.744 125.612C86.018 125.612 88.318 127.795 88.318 130.718H77.014Z" fill="#222221"/>
</g>
<defs>
<clipPath id="clip0_1_9">
<rect width="170.705" height="142.654" fill="white"/>
</clipPath>
</defs>
</svg>

<svg id="universite-lille" xmlns="http://www.w3.org/2000/svg" xmlns:xlink="http://www.w3.org/1999/xlink" width="170.705" height="142.654" viewBox="0 0 170.705 142.654">
  <defs>
    <clipPath id="clip-path">
      <rect id="Rectangle_6733" data-name="Rectangle 6733" width="170.705" height="142.654" fill="none"/>
    </clipPath>
  </defs>
  <g id="Groupe_19483" data-name="Groupe 19483" clip-path="url(#clip-path)">
    <path id="Tracé_22106" data-name="Tracé 22106" d="M39.329,27.3V0H32.3V32.154a1.742,1.742,0,0,0,1.8,1.8h19.91L56.973,27.3ZM26.979,55.867c-12.062,0-18.542-6.191-18.542-19.226V0H.863V37.447c0,16,9.278,25.614,23.956,25.614H40.774l3.24-7.194ZM29.686,41.4c-3.7,0-5.673-1.8-5.673-5.567V0h-7.3V36.109c0,7.817,4.593,12.305,12.609,12.305H47.436L50.585,41.4Z" fill="#222221"/>
    <path id="Tracé_22107" data-name="Tracé 22107" d="M11.212,106.895c6.821,0,10.758-3.624,10.758-10.991V79.222H17.8v16.76c0,4.677-2.066,7.133-6.587,7.133-4.482,0-6.665-2.456-6.665-7.133V79.222H.376V95.9c0,7.367,3.976,10.991,10.836,10.991m15.24-.389h3.9l.039-11.187c0-3.235,1.87-5.222,4.911-5.222,2.923,0,4.482,1.792,4.482,5.222v11.187h3.9V94.462c0-4.717-2.378-7.835-6.977-7.835a8.034,8.034,0,0,0-6.353,2.768V87.017h-3.9Zm21.788,0h3.9V87.018h-3.9Zm13.8,0h4.911l7.4-19.489H70.145l-5.613,16.215-5.69-16.215h-4.21ZM50.228,83.7a2.436,2.436,0,1,0-2.417-2.455A2.366,2.366,0,0,0,50.228,83.7m35.079,23.191c4.482,0,8.146-2.455,9-6H90.179c-.7,1.559-2.456,2.689-4.911,2.689-3.352,0-5.457-1.832-5.925-5.379H94.5a11.417,11.417,0,0,0,.117-1.6c0-5.963-3.43-9.978-9.432-9.978-5.886,0-9.861,4.015-9.861,9.978,0,6.471,3.9,10.29,9.978,10.29M79.343,95.047c.468-3.118,2.495-5.106,5.73-5.106,3.274,0,5.574,2.182,5.574,5.106ZM98.52,106.506h3.9V90.525h6.859V87.017h-5.651a4.935,4.935,0,0,0-5.106,5.106Zm20.346.389c5.028,0,8.068-2.143,8.068-6,0-3.352-1.871-5.184-5.379-5.769l-4.482-.74c-1.52-.234-2.339-.975-2.339-2.222,0-1.559,1.6-2.417,3.859-2.417,2.611,0,4.092,1.17,4.248,3.119h3.781c-.195-4.054-2.962-6.276-8.029-6.276-4.833,0-7.484,2.339-7.484,5.73,0,3.274,2.027,4.95,5.34,5.5l4.132.662a2.738,2.738,0,0,1,2.611,2.651c0,1.559-1.637,2.494-4.326,2.494-2.924,0-4.288-1.442-4.522-3h-3.858c.234,3.82,3.469,6.275,8.38,6.275m11.966-.389h3.9V87.018h-3.9Zm13.8,0H149.5V103H143.46V90.525H149.5V87.017H143.46v-6.08h-3.9v20.541a4.84,4.84,0,0,0,5.067,5.028m-11.81-22.8a2.436,2.436,0,1,0-2.416-2.455,2.365,2.365,0,0,0,2.416,2.455m28.57,23.191c4.483,0,8.146-2.455,9-6h-4.132c-.7,1.559-2.455,2.689-4.911,2.689-3.352,0-5.456-1.832-5.924-5.379h15.162a11.417,11.417,0,0,0,.117-1.6c0-5.963-3.43-9.978-9.433-9.978-5.885,0-9.861,4.015-9.861,9.978,0,6.471,3.9,10.29,9.978,10.29m-5.963-11.848c.468-3.118,2.494-5.106,5.729-5.106,3.275,0,5.574,2.182,5.574,5.106Zm4.053-10.174h3.508l3.664-5.651h-4.6ZM10.329,139.224c-3.976,0-6.236-2.923-6.236-6.626s2.3-6.626,6.236-6.626c3.7,0,6.275,2.923,6.275,6.626s-2.455,6.626-6.275,6.626m-.858,3.43c3.158,0,5.574-.974,6.977-3.079v2.689h3.9V114.98h-3.9V125.5a8.726,8.726,0,0,0-6.9-3.118c-5.5,0-9.55,4.17-9.55,10.212s3.937,10.056,9.471,10.056m24.361,0c4.482,0,8.146-2.455,9-6H38.7c-.7,1.558-2.456,2.689-4.911,2.689-3.352,0-5.457-1.832-5.925-5.379H43.03a11.427,11.427,0,0,0,.117-1.6c0-5.963-3.43-9.978-9.432-9.978-5.885,0-9.861,4.015-9.861,9.978,0,6.47,3.9,10.29,9.978,10.29M27.868,130.8c.468-3.118,2.5-5.106,5.73-5.106,3.274,0,5.574,2.183,5.574,5.106Zm27.867,11.459H71.482v-3.585H59.906v-23.7H55.735Zm18.553,0h3.9V122.775h-3.9Zm13.759,0h3.9v-3.585H86.917v-23.7h-3.9v22.295c0,3.118,1.832,4.989,5.028,4.989m-11.771-22.8a2.436,2.436,0,1,0-2.417-2.456,2.367,2.367,0,0,0,2.417,2.456m22.84,22.8h3.9v-3.585H97.986v-23.7h-3.9v22.295c0,3.118,1.832,4.989,5.028,4.989m14.851.39c4.482,0,8.146-2.455,9-6h-4.131c-.7,1.558-2.456,2.689-4.912,2.689-3.351,0-5.456-1.832-5.924-5.379h15.162a11.429,11.429,0,0,0,.117-1.6c0-5.963-3.43-9.978-9.432-9.978-5.886,0-9.862,4.015-9.862,9.978,0,6.47,3.9,10.29,9.979,10.29M108,130.8c.468-3.118,2.5-5.106,5.73-5.106,3.274,0,5.573,2.183,5.573,5.106Z" fill="#222221"/>
  </g>
</svg>
